symbols/web/flight_class/materialsymbolssharp/flight_class_wght500_24px.svg

<svg xmlns="http://www.w3.org/2000/svg" height="24" width="24"><path d="M11.825 13.15V3.775h6.35v9.375Zm2.275-2.3h1.8v-4.8h-1.8Zm-6.2 7.2L4.85 7.925v-4.15h2.3v4.1l2.45 7.9h8.55v2.275Zm-.05 3.275V19.05h10.3v2.275ZM14.1 6.05h1.8Z"/></svg>

<svg xmlns="http://www.w3.org/2000/svg" height="24" width="24"><path d="M11.825 13.15V3.775H18.175V13.15ZM14.1 10.85H15.9V6.05H14.1ZM7.9 18.05 4.85 7.925V3.775H7.15V7.875L9.6 15.775H18.15V18.05ZM7.85 21.325V19.05H18.15V21.325ZM14.1 6.05H15.9Z"/></svg>
